**kern	**kern	**dynam
*part1	*part1	*part1
*staff2	*staff1	*staff1
*IPiano	*IPiano	*IPiano
*clefF4	*clefF4	*clefF4
*k[b-e-a-d-g-]	*k[b-e-a-d-g-]	*k[b-e-a-d-g-]
*M3/8	*M3/8	*M3/8
=1	=1	=1
!Tempo Marking: Moderement anime	!Tempo Marking: Moderement anime	!Tempo Marking: Moderement anime
!Expression: quasi guitarra	!	!
8F'	4.r	pp
!Expression: (comme en preludant)	!	!
8G-'	.	.
8F'	.	.
=2	=2	=2
8G-'	4.r	.
8F'	.	.
(<8qF/	.	<
8G-'~)	.	[[
=3	=3	=3
4.r	4.r	[
=4	=4	=4
4.r	4.r	.
=5	=5	=5
16F'	4.r	pp
16F'	.	.
16E-'	.	.
16E-'	.	.
16D-'	.	.
16D-'	.	.
=6	=6	=6
16C-'	4.r	.
16C-'	.	.
16BB-'	.	.
16BB-'	.	.
16GG-'	.	.
16GG-'	.	.
=7	=7	=7
16FF'	4.r	.
16FF'	.	.
16GG-'	.	.
16GG-'	.	.
16BB-'	.	.
16BB-'	.	.
=8	=8	=8
16C-'	4.r	.
16C-'	.	.
16D-'	.	.
16D-'	.	.
16E-'	.	.
16E-'	.	.
=9	=9	=9
16FF'	4.r	mf
16F'	.	.
16Cn'	.	.
16C'	.	.
16FF'	.	.
16FF'	.	.
=10	=10	=10
16C'	4.r	>
16F'	.	.
16FF'	.	.
16C'	.	.
16C'	.	.
16FF'	.	]]
=11	=11	=11
8F'	4.r	]
8G-'	.	.
8F'	.	.
=12	=12	=12
8G-'	4.r	.
8F'	.	<
(<8qF/	.	.
8G-'~)	.	[[
=13	=13	=13
16F'	4.r	[
16F'	.	.
16E-'	.	.
16E-'	.	.
16D-'	.	.
16D-'	.	.
=14	=14	=14
16C-'	4.r	.
16C-'	.	.
16BB-'	.	.
16BB-'	.	.
16GG-'	.	.
16GG-'	.	.
=15	=15	=15
16FF'	4.r	mf
16F'	.	.
16Cn'	.	.
16C'	.	.
16FF'	.	.
16FF'	.	.
=16	=16	=16
16C'	4.r	>
16F'	.	.
16FF'	.	.
16C'	.	.
16C'	.	.
16FF'	.	.
=17	=17	=17
!Tempo Marking: Rit.	!Tempo Marking: Rit.	!Tempo Marking: Rit.
!	!	!Dynamic Expression: dim
8FF'	4.r	]p
8FF' 8C	.	.
8FF'	.	.
=18	=18	=18
8FF' 8C	4.r	.
8FF'	.	.
8FF' 8C	.	.
=19	=19	=19
!Tempo Marking: a Tempo	!Tempo Marking: a Tempo	!Tempo Marking: a Tempo
(>16FFLL	8r	pp
16C)	.	.
16F'	8An 8c 8e-	.
16G-'J	.	.
8A-~J	8r	.
=20	=20	=20
*	*^	*
(>16BB-LL	8r	8ryy	.
16FJJ)	.	.	.
8r	8En 8B- 8d-	16A-'LL	.
.	.	16G-'	.
8r	8ryy	16A-'	.
.	.	16G-'JJ	.
=21	=21	=21	=21
(<16FFLL	8r	8ryy	.
16CJJ)	.	.	.
4ryy	16F'LL	8ryy	.
.	16c'	.	.
.	16c'	16ryy	.
.	16c'JJ	16f 16an	.
=22	=22	=22	=22
(<16BB-LL	8ryy	16c'LL	<
16F	.	16c'	.
16d-JJ)	8en 8gn	16c'	.
16r	.	16d-'	.
8r	8ryy	16e-X'	.
.	.	16d-'JJ	.
=23	=23	=23	=23
(<16BB-LL	8ryy	16c'LL	[>
16F	.	16c'	.
16d-JJ)	8en 8gn	16c'	.
16r	.	16B-'	.
8r	8ryy	16A-'	.
.	.	16G-X'JJ	.
*	*v	*v	*
=24	=24	=24
4ryy	(16FFLL	]p
.	16C')	.
.	(>16F	.
.	16c'JJ)	.
16F' 16c	8ryy	>
16F' 16c	.	.
=25	=25	=25
!Expression: les deux pedales	!	!
16F' 16c	4.r	]pp
16G-' 16d-	.	.
16F' 16c	.	.
16E-' 16B-	.	.
16F' 16c	.	.
16G-' 16d-	.	.
=26	=26	=26
16F' 16c	4.r	.
16F' 16c	.	.
16F' 16c	.	.
16F' 16c	.	.
16F' 16c	.	.
16F' 16c	.	.
=27	=27	=27
!!linebreak:original
16F 16c	4.r	.
16G- 16d-	.	.
16F 16c	.	.
16E- 16B-	.	.
16F 16c	.	.
16G- 16d-	.	.
=28	=28	=28
16F 16c	4.r	.
16F 16c	.	.
16F 16c	.	.
16F 16c	.	.
16F 16c	.	.
16G- 16d-	.	.
=29	=29	=29
16F 16c	4.r	.
16F 16c	.	.
16F 16c	.	.
16F 16c	.	.
16F 16c	.	.
16G- 16d-	.	.
=30	=30	=30
!	!	!Dynamic Expression: piu
16F 16c	4.r	pp
16G- 16d-	.	.
16F 16c	.	.
16G- 16d-	.	.
16F 16c	.	.
16G- 16d-	.	.
=31	=31	=31
16F 16c	4.r	.
16G- 16d-	.	.
16F 16c	.	.
16G- 16d-	.	.
16F 16c	.	.
16G- 16d-	.	.
=32	=32	=32
*	*clefG2	*
!Expression: (estompe et en suivant l'expression)	!Expression: expressif et un peu suppliant	!
16F 16c	[4.en	.
16G- 16d-	.	.
16F 16c	.	.
16G- 16d-	.	.
16F 16c	.	.
16G- 16d-	.	.
=33	=33	=33
16F 16c	4.en]	.
16G- 16d-	.	.
16F 16c	.	.
16G- 16d-	.	.
16F 16c	.	.
16G- 16d-	.	.
=34	=34	=34
16F 16c	(<4f	.
16G- 16d-	.	.
16F 16c	.	.
16G- 16d-	.	.
16F 16c	[8en)	.
16G- 16d-	.	.
=35	=35	=35
16F 16c	4.en_	.
16G- 16d-	.	.
16F 16c	.	.
16G- 16d-	.	.
16F 16c	.	.
16G- 16d-	.	.
=36	=36	=36
16F 16c	4.en]	.
16G- 16d-	.	.
16F 16c	.	.
16G- 16d-	.	.
16F 16c	.	.
16G- 16d-	.	.
=37	=37	=37
16F 16c	8r	.
16G- 16d-	.	.
16F 16c	(8f'L	.
16G- 16d-	.	.
16F 16c	8f'J	.
16G- 16d-	.	.
=38	=38	=38
16F 16c	[4.f~	.
16G- 16d-	.	.
16F 16c	.	.
16G- 16d-	.	.
16F 16c	.	.
16G- 16d-	.	.
=39	=39	=39
!Tempo Marking: Cedez	!Tempo Marking: Cedez	!Tempo Marking: Cedez
16F 16c	4.f]	.
16G- 16d-	.	.
16F 16c	.	.
16G- 16d-	.	.
16F 16c	.	.
16G- 16d-	.	.
=40	=40	=40
16F 16c	4.en	>
16G- 16d-	.	.
16F 16c	.	.
16G- 16d-	.	.
16F 16c	.	.
16G- 16d-	.	.
=41	=41	=41
!Tempo Marking: a Tempo	!Tempo Marking: a Tempo	!Tempo Marking: a Tempo
.	(<8qen/	]pp
*	*^	*
16FF'LL	[4.cZ))	8rA	.
16C'	.	.	.
(>16F	.	8An 8e-X	<
16G-J	.	.	.
8A-X~J)	.	8rA	[
*	*v	*v	*
=42	=42	=42
*^	*	*
8r	(<16BB-LL	4.c]	.
.	16FJJ)	.	.
8En 8B- 8d-	16A-'LL	.	>
.	16G-'	.	.
8r	16A-'	.	.
.	16G-'JJ	.	.
*v	*v	*	*
*	*clefF4	*
=43	=43	=43
*	*^	*
4.ryy	(16FFLL	4ryy	]
.	16C')	.	.
.	(>16F'	.	.
.	16c')	.	.
.	16c'	16ryy	.
.	16c'JJ	16f 16an	.
=44	=44	=44	=44
(>16BB-LL	8ryy	16c'LL	<
16F	.	16c'	.
16d-JJ)	8en 8gn	16c'	.
16r	.	16c'	.
8r	8ryy	16c'	.
.	.	16c'JJ	[
=45	=45	=45	=45
(>16BB-LL	8ryy	16c'LL	>
16F	.	16c'	.
16d-JJ)	8en 8gn	16c'	.
16r	.	16c'	.
8r	8ryy	16c'	.
.	.	16c'JJ	]
=46||	=46||	=46||	=46||
*k[]	*k[]	*k[]	*k[]
!Tempo Marking: Tres vif	!Tempo Marking: Tres vif	!Tempo Marking: Tres vif	!Tempo Marking: Tres vif
(>8EE~L	8r	8ryy	f
*	*clefG2	*	*
8G#'J) 8d 8f	8cc'^^ 8ff 8ccc	8ryy	.
*	*clefF4	*	*
16qqD/LL	.	.	<
16qqE/	.	.	.
16qqE#/JJ	.	.	.
8r	(>[8B-^^	[8F#)	.
=47	=47	=47	=47
8r	16B-LL]	8F#XL]	.
.	16cJ	.	.
16qqG/LL	.	.	.
16qqG#/JJ	.	.	.
8A'L	8e'J)	8cJ	[
*	*clefG2	*	*
[8G#J [8d [8f	[8cc'^^ [8ff [8ccc	8ryy	sff
*	*v	*v	*
=48	=48	=48
!Tempo Marking: Retenu	!Tempo Marking: Retenu	!Tempo Marking: Retenu
*^	*	*
4.G#X] 4.d] 4.f]	8r	4.cc] 4.ff] 4.ccc]	.
.	8EE'L	.	p<
!	!Expression: m.d.	!	!
.	(<8qEE/	.	.
.	[8FJ)	.	[
=49	=49	=49	=49
!	!	!	!Dynamic Expression: dim. molto
4.rEE	16FLL]	4.r	.
.	16F'	.	.
.	16F'	.	.
.	16F'	.	.
.	16F'	.	.
.	16F'ZJJ	.	.
*v	*v	*	*
=50||	=50||	=50||
*k[b-e-a-d-g-]	*k[b-e-a-d-g-]	*k[b-e-a-d-g-]
!Tempo Marking: a Tempo	!Tempo Marking: a Tempo	!Tempo Marking: a Tempo
16F'	4.r	pp
16F'	.	.
16E-'	.	.
16E-'	.	.
16D-'	.	.
16D-'	.	.
=51	=51	=51
16C-'	4.r	.
16C-'	.	.
16BB-'	.	.
16BB-'	.	.
16GG-'	.	.
16GG-'	.	.
=52	=52	=52
16FF'	4.r	.
16FF'	.	.
16GG-'	.	.
16GG-'	.	.
16BB-'	.	.
16BB-'	.	.
=53	=53	=53
16C-'	4.r	.
16C-'	.	.
16D-'	.	.
16D-'	.	.
16E-'	.	.
16E-'	.	.
=54	=54	=54
16F'	8r	.
16F' 16c	.	.
16F'	(>8g-L	.
16F' 16c	.	.
16F'	8fJ	.
16F' 16c	.	.
=55	=55	=55
16G-	4b-	.
16G- 16d-	.	.
16G-	.	.
16G- 16d-	.	.
16Gn	8an)	.
16G- 16d-	.	.
=56	=56	=56
16F	8r	.
16F 16c	.	.
16F	(<8anL	.
16F 16c	.	.
16F	8g-J	.
16F 16c	.	.
=57	=57	=57
16G-	4f)	<
16G- 16d-	.	.
16G-	.	.
16G- 16d-	.	.
.	(<8qg-/	.
16Gn	[8f~)	.
16G 16dn	.	[
=58	=58	=58
16A-	4.f_	>
16A- 16e-	.	.
16En	.	.
16E 16Bn	.	.
16F	.	.
16F 16c	.	]
=59	=59	=59
*	*^	*
16G-	4f]	8ryy	<
16G- 16d-	.	.	.
16G-	.	8rff	.
16G- 16d-	.	.	.
.	.	(<8qg-X/	.
16Gn	8ryy	[8f~)	.
16G 16dn	.	.	[
*	*v	*v	*
=60	=60	=60
16A-	4.f]	>
16A- 16e-	.	.
16En	.	.
16E 16Bn	.	.
16F	.	.
16F 16c	.	]
=61	=61	=61
16G-	4.r	<
16A- 16B- 16d-	.	.
16G-	.	.
16A- 16B- 16d-	.	.
16Gn	.	.
16An 16Bn 16dn	.	[
=62	=62	=62
16A-^	4.r	mf
16B-^ 16c 16e-	.	.
16A-^	.	.
16B-^ 16c 16e-	.	.
16An^	.	.
16Bn^ 16c#X 16en	.	.
=63	=63	=63
16B- 16f	8r	p
16d- 16gn	.	.
16E- 16B-	(>8cc'L	.
16d- 16g	.	.
16B- 16f	8an'J	.
16d- 16g	.	.
=64	=64	=64
16E- 16B-	4cc~	.
16d- 16gn	.	.
16B- 16f	.	.
16d- 16g	.	.
16E- 16B-	8b-)	.
16d- 16g	.	.
=65	=65	=65
16B- 16f-	8.r	.
16d- 16gn	.	.
16E- 16B-	.	.
16d- 16g	(>8.cc	<
16B- 16f-	.	.
16d- 16g	.	.
=66	=66	=66
16E- 16B-	8.anL	.
16d- 16gn	.	.
16B- 16f-	.	.
16d- 16g	8.b-J	.
16E- 16B-	.	.
16d- 16g	.	[
=67	=67	=67
16B- 16e-	8ee-L	.
16d- 16g-	.	.
16E- 16B-	8cc	.
16d- 16g-	.	.
16B- 16e-	[8b-J)	.
16d- 16g-	.	.
=68	=68	=68
16E- 16B-	4.b-_	.
16d- 16g-	.	.
16B- 16e-	.	.
16d- 16g-	.	.
16E- 16B-	.	.
16d- 16g-	.	.
=69	=69	=69
16B- 16e-	(>8b-L]	>
16c	.	.
16E- 16A-	8a-	.
16c	.	.
16AA- 16E-	[8g-J	.
16c	.	]
=70	=70	=70
16B- 16e-	4.g-_	.
16c	.	.
16E- 16A-	.	.
16c	.	.
16AA- 16E-	.	.
16c	.	.
=71	=71	=71
16B- 16e-	4.g-]	<
16c	.	.
16E- 16A-	.	.
16c	.	.
16AA- 16E-	.	.
16c	.	[
=72	=72	=72
16B- 16e-	4.b-)	.
16c 16g-	.	.
16E- 16A-	.	.
16c 16g-	.	.
16AA- 16E-	.	.
16c 16g-	.	.
=73	=73	=73
(>16DD-LL	8r	mf
16AA-	.	.
16F	8B-' 8d-	.
16G-	.	.
16A-	8ryy	.
16fJJ)	.	.
=74	=74	=74
*^	*	*
(16AA-LL)	8ryy	8r	.
16G-)	.	.	.
(>16A-	16B--	8c' 8e-	.
16G-	16r	.	.
16A-	8f~	8ryy	.
16G-JJ)	.	.	.
*v	*v	*	*
=75	=75	=75
(>16DD-LL	8r	.
16AA-	.	.
16F	8B-' 8d-	.
16G-	.	.
16A-	8ryy	.
16fJJ)	.	.
=76	=76	=76
!Tempo Marking: Librement	!Tempo Marking: Librement	!Tempo Marking: Librement
4.r	[(8ff~L)	.
.	32ffLL]	.
.	32dd-	.
.	32ee-	.
.	32cc	.
.	40dd-	.
.	40b-	.
.	40cc	.
.	40a-	.
.	40b-JJJ)	.
=77	=77	=77
4.r	(<[8g-L	>
.	32g-LL]	.
.	32an	.
.	32b-	.
.	32cc	.
.	(<8qee-/	.
.	32dd-)	.
.	32cc	.
.	32b-	.
.	32aJJJ)	]
=78	=78	=78
!Tempo Marking: Retenu	!Tempo Marking: Retenu	!Tempo Marking: Retenu
4.r	(<4g-	p>
.	(<8qcc/	.
.	16b-~LL)	.
.	16anJJ)	]
=79	=79	=79
!	!	!Dynamic Expression: piu
4.r	(<4g-	p>
.	(<8qccZ/	.
.	16b-~LL)	.
.	16anZJJ)	]
=80||	=80||	=80||
*k[f#c#]	*k[f#c#]	*k[f#c#]
*M2/4	*M2/4	*M2/4
!Tempo Marking: Modere	!Tempo Marking: Modere	!Tempo Marking: Modere
!Expression: lointain	!	!
*^	*	*
.	.	(8qa	.
8r	8DD' 8AA	4f#)	pp
8AA' 8D 8F#	8rEE	.	.
8r	8AA~	4r	.
8AA' 8D 8F#	8rEE	.	.
=81	=81	=81	=81
8r	8DD' 8AA	2r	.
8AA' 8D 8F#	8rGG	.	.
8r	8AA~	.	.
8AA' 8D 8F#	8rGG	.	.
=82	=82	=82	=82
8r	8DD' 8AA	2r	.
16DLL 16F#	8rGG	.	.
16AAJJ	.	.	.
16DLL 16F#	8AA~	.	.
16AA	.	.	.
16E 16G	8rGG	.	.
16AAJJ	.	.	.
=83	=83	=83	=83
8r	8DD' 8AA	2r	<
16F#LL 16A	8rGG	.	.
16AA	.	.	.
16F# 16A	8AA~	.	.
16AA	.	.	.
16G 16B	8rGG	.	.
16AAJJ	.	.	[
=84	=84	=84	=84
8r	8DD' 8AA	2r	>
16F#LL 16A	8rGG	.	.
16AA	.	.	.
16F# 16A	8AA~	.	.
16AA	.	.	.
16E 16G	8rGG	.	.
16AAJJ	.	.	]
*v	*v	*	*
=85||	=85||	=85||
*	*clefF4	*
*k[b-e-a-d-g-]	*k[b-e-a-d-g-]	*k[b-e-a-d-g-]
*M3/8	*M3/8	*M3/8
!Tempo Marking: Rageur	!Tempo Marking: Rageur	!Tempo Marking: Rageur
16FF'LL	8r	f<
16C'	.	.
(<16F	8An'^^H 8c 8e-h	.
16G-J)	.	.
8A-~J	8r	[
=86	=86	=86
*	*^	*
(<16BB-LL	8r	8ryy	.
16FJJ)	.	.	.
4ryy	8En'^^H) 8B- 8d-h	16A-LL	.
.	.	16G-	.
.	8ryy	16A-	.
.	.	16G-JJ	.
*	*v	*v	*
=87||	=87||	=87||
*k[f#c#]	*k[f#c#]	*
*M2/4	*M2/4	*
!Tempo Marking: Modere	!Tempo Marking: Modere	!Tempo Marking: Modere
*^	*	*
!	!	!	!Dynamic Expression: subito
8r	8DD 8AA	2r	pp
8AA 8D 8F#	8ryy	.	.
8ryy	8AA	.	.
8AA 8D 8F#	8ryy	.	.
=88	=88	=88	=88
8r	8DD 8AA	2r	.
8AA 8D 8F#	8ryy	.	.
8ryy	8AA	.	.
8AA 8D 8F#	8ryy	.	.
=89	=89	=89	=89
8r	8DD 8AA	2r	.
16DLL 16F#	8r	.	.
16AA	.	.	.
16D 16F#	8AA	.	.
16AA	.	.	.
16E 16G	8r	.	.
16AAJJ	.	.	.
*v	*v	*	*
=90||	=90||	=90||
*k[b-e-a-d-g-]	*k[b-e-a-d-g-]	*k[b-e-a-d-g-]
*M3/8	*M3/8	*M3/8
!Tempo Marking: Rageur	!Tempo Marking: Rageur	!Tempo Marking: Rageur
16FF'LL	8r	f<
16C'	.	.
(<16F	8An'^^H 8c 8e-h	.
16G-J)	.	.
8A-~J	8r	[
=91	=91	=91
*^	*	*
*	*	*clefG2	*
8ryy	(<16FFLL	8r	f<
.	16BB-JJ	.	.
!Expression: m.d.	!	!	!
16A-LL 16B- 16d-	4En)	(8d-L	.
16G-	.	.	.
!	!	!Expression: m.g.	!
16A- 16B- 16d-	.	8g-J)	.
16G-JJ	.	.	[
*v	*v	*	*
=92	=92	=92
*	*^	*
16FF'LL	8r	8ryy	f<
16C'	.	.	.
(<16F	(>8enL	4An 4c	.
16G-J)	.	.	.
8A-~J	8e-J)	.	[
*	*v	*v	*
=93	=93	=93
*^	*	*
8r	(<16FFLL	8r	.
.	16BB-JJ	.	.
!Expression: m.d.	!	!	!
16A-LL 16B- 16d-	4En)	(<8d-L	f<
16G-	.	.	.
!	!	!Expression: m.g.	!
16A- 16B- 16d-	.	8a-J)	.
16G-JJ	.	.	[
*v	*v	*	*
=94	=94	=94
!	!	!Dynamic Expression: dim.
(>16BB-LL	4.r	.
16EnJJ	.	.
16A-LL 16B- 16d-	.	.
16G-	.	.
16A- 16B- 16d-	.	.
16G-JJ)	.	.
=95	=95	=95
!Tempo Marking: Revenir au Mouvt	!Tempo Marking: Revenir au Mouvt	!Tempo Marking: Revenir au Mouvt
(>16BB-LL	4.r	.
16EnJJ	.	.
16A-LL 16B- 16d-	.	.
16G-	.	.
16A- 16B- 16d-	.	.
16G-JJ)	.	.
=96	=96	=96
!	!	!Dynamic Expression: piu dim.
(>16BB-LL	4.r	.
16EnJJ	.	.
16A-LL 16B- 16d-	.	.
16G-	.	.
16A- 16B- 16d-	.	.
16G-JJ)	.	.
=97	=97	=97
(>16BB-LL	4.r	.
16EnJJ	.	.
16A-LL 16B- 16d-	.	.
16G-	.	.
16A- 16B- 16d-	.	.
16G-JJ)	.	.
=98	=98	=98
!Dynamic Marking: pp	!	!
(>16BB-LL	(>[4.en~	p
16EnJJ	.	.
16A-LL 16B- 16d-	.	.
16G-	.	.
16A- 16B- 16d-	.	.
16G-JJ)	.	.
=99	=99	=99
(>16BB-LL	4.en]	.
16EnJJ	.	.
16A-LL 16B- 16d-	.	.
16G-	.	.
16A- 16B- 16d-	.	.
16G-JJ)	.	.
=100	=100	=100
(>16BB-LL	4.a-	.
16EnJJ	.	.
16A-LL 16B- 16d-	.	.
16G-	.	.
16A- 16B- 16d-	.	.
16G-JJ)	.	.
=101	=101	=101
(>16BB-LL	[4.f)	.
16FJJ	.	.
16A-LL 16B- 16d-	.	.
16G-	.	.
16A- 16B- 16d-	.	.
16G-JJ)	.	.
=102	=102	=102
(>16BB-LL	4.f_	.
16FJJ	.	.
16A-LL 16B- 16d-	.	.
16G-	.	.
16A- 16B- 16d-	.	.
16G-JJ)	.	.
=103	=103	=103
(>16BB-LL	4.f_	.
16FJJ	.	.
16A-LL 16B- 16d-	.	.
16G-	.	.
16A- 16B- 16d-	.	.
16G-JJ)	.	.
=104	=104	=104
(>16BB-LL	4.f]	.
16FJJ	.	.
16A-LL 16B- 16d-	.	.
16G-	.	.
16A- 16B- 16d-	.	.
16G-JJ)	.	.
=105	=105	=105
(>16BB-LL	4.r	.
16EnJJ	.	.
16A-LL 16B- 16d-	.	.
16G-	.	.
16A- 16B- 16d-	.	.
16G-JJ)	.	.
=106	=106	=106
(>16BB-LL	(>[4.b-~	<
16EnJJ	.	.
16A-LL 16B- 16d-	.	.
16G-	.	.
16A- 16B- 16d-	.	.
16G-JJ)	.	.
=107	=107	=107
(>16BB-LL	4.b-]	.
16EnJJ	.	.
16A-LL 16B- 16d-	.	.
16G-	.	.
16A- 16B- 16d-	.	.
16G-JJ)	.	.
=108	=108	=108
(>16BB-LL	4.dd-~	.
16EnJJ	.	.
16A-LL 16B- 16d-	.	.
16G-	.	.
16A- 16B- 16d-	.	.
16G-JJ)	.	[
=109	=109	=109
(>16BB-LL	[4.ff~)	.
16FJJ	.	.
16A-LL 16B- 16d-	.	.
16G-	.	.
16A- 16B- 16d-	.	.
16G-JJ)	.	.
=110	=110	=110
(>16BB-LL	4.ff_	.
16FJJ	.	.
16A-LL 16B- 16d-	.	.
16G-	.	.
16A- 16B- 16d-	.	.
16G-JJ)	.	.
=111	=111	=111
(>16BB-LL	(>4.ff]	.
16FJJ	.	.
16A-LL 16B- 16d-	.	.
16G-	.	.
16A- 16B- 16d-	.	.
16G-JJ)	.	.
=112	=112	=112
(>16BB-LL	8.ee-~L	<
16F	.	.
16G-	.	.
16A-	8.dd-~J)	.
16B-	.	.
16cJJ)	.	[
=113	=113	=113
!Tempo Marking: Rubato	!Tempo Marking: Rubato	!Tempo Marking: Rubato
*^	*	*
!Expression: doux et harmonieux	!	!	!
4Gn	(<16F	8r	pp
.	16B- 16d- 16f	.	.
.	16BB-	(>8cc'L	.
.	16B- 16d- 16f	.	.
8ryy	16EE-	8an'J	.
.	16B- 16d- 16f	.	.
=114	=114	=114	=114
4Gn	16F	[4.cc~	.
.	16B- 16d- 16f	.	.
.	16BB-	.	.
.	16B- 16d- 16f	.	.
8ryy	16EE-	.	.
.	16B- 16d- 16f	.	.
=115	=115	=115	=115
4Gn	16F	4.cc]	.
.	16B- 16d- 16f	.	.
.	16BB-	.	.
.	16B- 16d- 16f	.	.
8ryy	16EE-	.	.
.	16B- 16d- 16f	.	.
=116	=116	=116	=116
4Gn	16F	4.b-)	.
.	16B- 16d- 16f	.	.
.	16BB-	.	.
.	16B- 16d- 16f	.	.
8ryy	16EE-	.	.
.	16B-) 16d- 16f	.	.
=117	=117	=117	=117
!	!	!	!Dynamic Expression: piu
4Gn	(<16F-	8r	pp
.	16B- 16d- 16f	.	.
.	16BB-	(>8cc'L	.
.	16B- 16d- 16f	.	.
8ryy	16EE-	8an'J	.
.	16B- 16d- 16f	.	.
=118	=118	=118	=118
4Gn	16F-	[4.cc	.
.	16B- 16d- 16f	.	.
.	16BB-	.	.
.	16B- 16d- 16f	.	.
8ryy	16EE-	.	.
.	16B- 16d- 16f	.	.
=119	=119	=119	=119
4Gn~	16F-	4.cc])	.
.	16B- 16d- 16f	.	.
.	16BB-	.	.
.	16B- 16d- 16f	.	.
8ryy	16EE-	.	.
.	16B- 16d- 16f	.	.
=120	=120	=120	=120
4Gn~	16F-	(>[4.b-	.
.	16B- 16d- 16f	.	.
.	16BB-	.	.
.	16B- 16d- 16f	.	.
8ryy	16EE-	.	.
.	16B-) 16d- 16f	.	.
=121	=121	=121	=121
4G-X	(<16E-	8.b-L]	.
.	16B- 16c 16f	.	.
.	16BB-	.	.
.	16B- 16c 16f	8.a-J	.
8ryy	16EE-	.	.
.	16B- 16c 16f	.	.
=122	=122	=122	=122
4G-~	16E-	[4.g-	.
.	16B- 16c 16f	.	.
.	16BB-	.	.
.	16B- 16c 16f	.	>
8ryy	16EE-	.	.
.	16B- 16c 16f	.	.
=123	=123	=123	=123
4G-~	16E-	4.g-]	.
.	16B- 16c 16f	.	.
.	16BB-	.	.
.	16B- 16c 16f	.	.
8ryy	16EE-	.	.
.	16B- 16c 16f	.	.
=124	=124	=124	=124
4G-~	16E-	4.b-)	]
.	16B- 16c 16f	.	.
.	16BB-	.	.
.	16B- 16c 16f	.	.
8ryy	16EE-)	.	.
.	16B- 16c 16f	.	.
*v	*v	*	*
=125	=125	=125
!Tempo Marking: a Tempo	!Tempo Marking: a Tempo	!Tempo Marking: a Tempo
16FF'LL	4.ryy	pp
16C'	.	.
16F'	.	.
16G-'	.	.
16A-'	.	.
16AnH 16c 16e-hJJ	.	.
=126	=126	=126
16BB-'LL	4.ryy	.
16F'	.	.
16G-'	.	.
16A-X'	.	.
16An'	.	.
16B-H 16d- 16enhJJ	.	.
=127	=127	=127
16FF'LL	4.ryy	.
16C'	.	.
16F'	.	.
16G-'	.	.
16A-'	.	.
16AnH 16c 16e-hJJ	.	.
=128	=128	=128
16BB-'LL	4.r	.
16F'	.	.
16G-'	.	.
16A-X'	.	.
16An'	.	.
16B-H 16d- 16enhJJ	.	.
=129	=129	=129
!Expression: en s'eloignant	!	!
16F'	4.r	.
16F'	.	.
16E-'	.	.
16E-'	.	.
16D-'	.	.
16D-'	.	.
=130	=130	=130
16C-'	4.r	.
16C-'	.	.
16BB-'	.	.
16BB-'	.	.
16GG-'	.	.
16GG-'	.	.
=131	=131	=131
16FF'	4.r	.
16GG-' 16BB- 16D-	.	.
16FF'	.	.
16EE-' 16GG- 16BB-	.	.
16FF'	.	.
16GG-' 16BB- 16D-	.	.
=132	=132	=132
16FF'	4.r	.
16GGn' 16BB- 16D-	.	.
16FF'	.	.
16EE-' 16GG 16BB-	.	.
16FF'	.	.
16GG' 16BB- 16D-	.	.
=133	=133	=133
*^	*	*
8r	[4.FF	4.r	.
8GG-~^^ 8BB- 8D-	.	.	sfz
8r	.	.	.
=134	=134	=134	=134
8GG-' 8BB- 8D-	4.FF_	4.r	p
8r	.	.	.
8r	.	.	.
=135	=135	=135	=135
4.r	4.FF]	4.r	.
=136	=136	=136	=136
16r	8r	4.r	.
16AA-' 16C 16E-	.	.	pp
4ryy	16FF'LL	.	>
.	16EE-'	.	.
.	16DD-'	.	.
.	16CC'JJ	.	]
=137	=137	=137	=137
8BB-' 8D- 8F	8BBB-' 8FF	4.r	.
8r	8r	.	.
8r	8r	.	.
*v	*v	*	*
==	==	==
*-	*-	*-
!!!system-decoration: {(s1,s2)}
!!!RDF**kern: > = above
!!!RDF**kern: < = below
!!!RDF**kern: Z = caesura
